raw-svg/pen-to-square.svg

<svg fill="none" height="24" viewBox="0 0 24 24" width="24" xmlns="http://www.w3.org/2000/svg"><path clip-rule="evenodd" d="m17.9069 4.92989c.1043-.10454.2943-.18575.5389-.18026.2447.0055.4529.09674.5725.21657.1288.12892.2215.34002.2309.57477.0094.2337-.0653.41302-.1672.51531l-.0002.0002-7.4899 7.49962-1.2729.1157.1002-1.2445 7.4876-7.49731zm2.173-1.02346c-.4372-.43795-1.0371-.64376-1.6004-.65642-.5635-.01266-1.1816.16684-1.6341.62001l-.0001.0001-7.68223 7.69218c-.12575.1259-.20263.2925-.21691.4699l-.19374 2.407c-.01775.2205.06276.4376.22.5932.15725.1557.37517.2339.59549.2139l2.43049-.221c.1749-.0159.3387-.0927.4628-.2169l7.6823-7.69234.0004-.0004c.4549-.45616.6266-1.07274.6041-1.63472-.0224-.56107-.24-1.14564-.6681-1.57451zm-14.26792.84356c-1.41109 0-2.5625 1.15141-2.5625 2.5625v10.87501c0 1.4111 1.15141 2.5625 2.5625 2.5625h10.87502c1.4111 0 2.5625-1.1514 2.5625-2.5625v-5.4375c0-.4142-.3358-.75-.75-.75s-.75.3358-.75.75v5.4375c0 .5827-.4799 1.0625-1.0625 1.0625h-10.87502c-.58266 0-1.0625-.4798-1.0625-1.0625v-10.87501c0-.58266.47984-1.0625 1.0625-1.0625h5.43752c.4142 0 .75-.33579.75-.75s-.3358-.75-.75-.75z" fill="#000" fill-rule="evenodd"/></svg>

<svg width="24" height="24" viewBox="0 0 24 24" fill="none" xmlns="http://www.w3.org/2000/svg">
<path fill-rule="evenodd" clip-rule="evenodd" d="M17.9069 4.92989C18.0112 4.82535 18.2012 4.74414 18.4458 4.74963C18.6905 4.75513 18.8987 4.84637 19.0183 4.9662C19.1471 5.09512 19.2398 5.30622 19.2492 5.54097C19.2586 5.77467 19.1839 5.95399 19.082 6.05628L19.0818 6.05648L11.5919 13.5561L10.319 13.6718L10.4192 12.4273L17.9068 4.92999L17.9069 4.92989ZM20.0799 3.90643C19.6427 3.46848 19.0428 3.26267 18.4795 3.25001C17.916 3.23735 17.2979 3.41685 16.8454 3.87002L16.8453 3.87012L9.16307 11.5623C9.03732 11.6882 8.96044 11.8548 8.94616 12.0322L8.75242 14.4392C8.73467 14.6597 8.81518 14.8768 8.97242 15.0324C9.12967 15.1881 9.34759 15.2663 9.56791 15.2463L11.9984 15.0253C12.1733 15.0094 12.3371 14.9326 12.4612 14.8084L20.1435 7.11606L20.1439 7.11566C20.5988 6.6595 20.7705 6.04292 20.748 5.48094C20.7256 4.91987 20.508 4.3353 20.0799 3.90643ZM5.81198 4.74999C4.40089 4.74999 3.24948 5.9014 3.24948 7.31249V18.1875C3.24948 19.5986 4.40089 20.75 5.81198 20.75H16.687C18.0981 20.75 19.2495 19.5986 19.2495 18.1875V12.75C19.2495 12.3358 18.9137 12 18.4995 12C18.0853 12 17.7495 12.3358 17.7495 12.75V18.1875C17.7495 18.7702 17.2696 19.25 16.687 19.25H5.81198C5.22932 19.25 4.74948 18.7702 4.74948 18.1875V7.31249C4.74948 6.72983 5.22932 6.24999 5.81198 6.24999H11.2495C11.6637 6.24999 11.9995 5.9142 11.9995 5.49999C11.9995 5.08578 11.6637 4.74999 11.2495 4.74999H5.81198Z" fill="black"/>
</svg>
